X:1
T:Grete Magd suchte
T:Valentin Haussmann
T:Source  : Tricinia---Johann-Jacob Gastoldi und anderer Autorn---Nürnberg---P.Kauffmann---1607. Editor : André Vierendeels (26/03/17).
T:Notes : Original clefs : C1, C3, C4 Editorial accidentals above the staff Text Middle German By Valentin Hauszmann
T:Grete Magd suchte
T:©
T:©
T:©
T:©
C:Valentin Haussmann
Z:©
%%score [ 1 [ 2 3 ] ]
L:1/8
Q:1/4=98
M:4/4
K:C
V:1 treble nm="Soprano" snm="S"
V:2 treble-8 nm="Tenor 1" snm="T 1"
V:3 treble-8 nm="Tenor 2" snm="T 2"
V:1
"^1)" G2 GG A2 B2 | c4 B4 | z4 z2 A2- | AA G2 G2 F2 | G4 z4 | z4 A2 AA |"^-natural" B2 c2 d4 | %7
w: Gre- te Magd such- te|Mer- ten,|ihrs-|* Hert- zen treu- en|Knecht,|an al- len|end und or-|
w: Sie gieng hin nach be-|dun- cken,|in|_ Nach- bar Jä- ckels|Stall,|da Mer- ten|lag, war trun-|
 c4 B4 | A2 B4 A2- | A2 ^G2 A4 | d2 dd e2 ^f2 | g4 f4 | e4 d4 | c6 B2- | B2 AG ^F2 F2 | %15
w: ten, sie|hett es fug|_ und recht,|an al- len end und|or- ten,|sie hett|es fug|_ _ _ _ und|
w: cken, es|ta- get ü-|* ber- all,|Mer- ten wolt sich nicht|rü- ren,|er wolt|nicht wer-|* * * * den|
[M:2/4] G4 ::[M:4/4] z2 B2 G2 G2 | c2 B2 A4 | A2 B2 c2 A2 | G2 E2 ^F2 d2 | ^c2 d2 e3 d/c/ | %21
w: recht,|denn es war|ihr be- fo|lhen, drumb musz sie|ge- hen ausz, sie|thet es nicht _ _|
w: wach,|sie dacht, es|wolt ihr g'bü-|ren, sie dacht, es|wolt ihr g'bü- *|* ren dasz _ _|
 B2 c2 A4 | A2 A2 B3 c | A2 A2 !fermata!B4 :| %24
w: _ ver- sto-|len, sucht ihn von|Hausz zu Hausz.|
w: _ sie ihn|weckt, dasz sie ihn|weckt, und sprach:|
V:2
"^2)""^1)" z4 d2 dd | e2 f2 g4 | f4 e3 e | d4 e2 dc | d2 e3 d f2 | e4 z4 | e2 ee f2 g2 | a4 g4 | %8
w: Gre- te Magd|such- te Mer-|ten, ihrs Hert-|zen treu- * *|* * * en|Knecht,|an al- len end und|or- ten,|
w: Ein gu- ten|Mor- gen, Mer-|ten, ey so|du fei- * *|* * * ner|Knecht,|wilt du denn nicht bald|auff- stehn,|
 f4 e4 | d4 c2 c2 | B4 G4- | G2 GG A2 B2 | c4 B2 B2 | c2 e2 d4- | d2 cB A2 A2 |[M:2/4] B4 :: %16
w: sie hett|es fug und|recht, an|_ al- len end und|or- ten, sie|hett es fug|_ _ _ _ und|recht,|
w: ich seh|du hast ge-|zecht. Da|_ wagt es die Magd|Gre- te, den|lie- ben Mer-|* * * * ten|weckt,|
[M:4/4] z2 d2 e2 d2 | e2 g2 ^f4 | ^f2 g2 e2 =f2 | e2 ^c2 d4 | z2 ^f2 g3 f | g2 e2 ^f4 | %22
w: denn es war|ihr be- fo|lhen, drumb musz sie|ge- hen ausz,|sie thet es|nicht ver- sto-|
w: hört wun- der|was sie the-|te, sie hett ihr|bald er- schreckt,|hört wun- der|was sie the-|
 ^f2 f2 d2 g2 | g2 ^f2 !fermata!g4 :| %24
w: len, sucht ihn von|Hausz zu Hausz.|
w: te, sie hett ihr|balt er- schreckt.|
V:3
"^3)" z8 |"^1)" z4 G2 GG | A2 B2 c4 | B4 A3 A | B2 c3 B d2- | d2 ^c2 d4 | z8 | %7
w: |Gre- te Magd|such- te Mer-|ten, ihrs Hert-|zen treu- * *|* en Knecht,||
"^-natural" A2 AA B2 c2 | d4 c4 | B4 A2 A2 | G4 E4 | E4 D2 DD | E2 F2 G4 | A2 E2 F2 G2 | D4 D4 | %15
w: an al- len end und|or- ten,|sie hett es|fug und|recht, an al- len|end und or-|ten, sie hett es|fug und|
[M:2/4] G4 ::[M:4/4] z2 G2 c2 B2 | A2 G2 D4 | D2 G2 A2 F2 | G2 A2 D4 | z2 d2 c3 d | e2 c2 d4 | %22
w: recht,|denn es war|ihr be- fo-|lhen, drumb musz sie|ge- hen ausz,|sie hett es|nicht ver- sto-|
 d2 D2 G2 E2 | D2 D2 !fermata!G4 :| %24
w: len, sucht ihn von|Hausz zu Hausz.|

